X:31
T:La Foug?re
R:---
C:Bretagne
I:abc2nwc
Z:Transcrit et/ou corrig? par Michel BELLON - 2007-04-27
Z:Pour toute observation mailto:galouvielle@free.fr
M:4/4
L:1/8
K:C
V:1
cd e2c2dd|cd e2c2d2| cd e2c2d2 ||
"doubl? ou tripl?"e2ed ef g2|e2ed ef !breath!g2||[P:Intro]e2eg fe d2|de fe d2c2|e2eg fe d2|de fe d2c2H|]
V:2
cG c2A2GG | cG c2A2G2 | cG c2A2G2 ||
c2cG cde2 | c2cG cde2 || c2ce dc G2 | GA Bc BG c2 | c2ce dc G2 | GA Bc BG c2 |]
<end>
<start>
